X:5940
T:Stens Polska
A:Dalarna, Boda
M:3/4
O:Sweden
R:Polska
Z:Richard Robinson 
%%TUNEURL: http://www.leeds.ac.uk/music/Info/RRTuneBk/gettune/00000bca.html
%%ID:00000bca
K:D
{B}A2 D>F A>d| f<g a2 f>g| \
a2 a/b/a/g/ e>c| {c}d2 c/d/c/B/ A>B|\
A2 D>F A>d| f<g a2 f>g|
a2a/b/a/g/ e>c | {c}d2 d4 :||: \
K:G
G>A Bc e>d| d<g B2 B>c| \
d2 d/e/d/c/ A>B| c2 B/c/B/A/ B>A|
G>A Bc e>d| d<g B2 B>c| \
d2 d/e/d/c/ A>F |1 G2 G4 :|2 G2 G3|]
